!!!COM: Palestrina, Giovanni Perluigi da
!!!OPR: Missa Te Deum laudamus
!!!OMD: Sanctus
!!!OTL: Pleni
**kern	**kern	**kern	**kern
*Itenor	*Itenor	*Icalto	*Icalto
!Tenor 2	!Tenor 1	!Altus 2	!Altus 1
*clefGv2	*clefGv2	*clefG2	*clefG2
*k[]	*k[]	*k[]	*k[]
*A:aeo	*A:aeo	*A:aeo	*A:aeo
*M4/2	*M4/2	*M4/2	*M4/2
=41	=41	=41	=41
0r	0r	1f	0r
.	.	2f	.
.	.	2f	.
=42	=42	=42	=42
0r	0r	1f	0r
.	.	2e	.
.	.	2d	.
=43	=43	=43	=43
0r	1c	1e	0r
.	2c	4A	.
.	.	4B	.
.	2c	4c	.
.	.	4d	.
=44	=44	=44	=44
0r	1c	4e	0r
.	.	4d	.
.	.	4e	.
.	.	4f	.
.	2B	2g	.
.	2A	[2a	.
=45	=45	=45	=45
1r	1B	2a]	0r
.	.	2g#	.
1F	1A	1a	.
=46	=46	=46	=46
2F	4D	2r	0r
.	4E	.	.
2F	4F	2.A	.
.	4G	.	.
1F	4A	.	.
.	4G	4B	.
.	4A	4c	.
.	4B	4d	.
=47	=47	=47	=47
2E	2c	2e	0r
2D	1d	2f	.
1E	.	2g	.
.	2c#	2G	.
=48	=48	=48	=48
1D	2d	2A	1f
.	4D	2B-	.
.	4E	.	.
4D	4F	1A	2f
4E	4G	.	.
4F	2A	.	2f
4G	.	.	.
=49	=49	=49	=49
4A	4D	0r	1f
4G	4E	.	.
4A	4F	.	.
4B	4G	.	.
2c	2A	.	2e
[2d	2B-	.	2d
=50	=50	=50	=50
2d]	1A	0r	1e
2c#	.	.	.
2d	1D	.	1d
4D	.	.	.
4E	.	.	.
=51	=51	=51	=51
4F	0r	1c	4A
4G	.	.	4B
1A	.	.	4c
.	.	.	4d
.	.	2c	2e
[2F	.	2c	4A
.	.	.	4B
=52	=52	=52	=52
4F]	0r	1c	4c
4E	.	.	4d
4C	.	.	4e
4D	.	.	4f
2E	.	2B	2g
2F	.	2A	[2a
=53	=53	=53	=53
1E	1r	1B	2a]
.	.	.	2g#
1r	2r	[1A	1a
.	2F	.	.
=54	=54	=54	=54
1c	2F	1A]	2r
.	2F	.	2a
2c	1F	4A	2a
.	.	4B	.
2c	.	4c	2a
.	.	4d	.
=55	=55	=55	=55
1c	2E	4e	1g
.	.	4d	.
.	4C	4e	.
.	4D	4f	.
2B	2E	2g	2e
2A	2F	[2a	2d
=56	=56	=56	=56
1B	1E	2a]	1e
.	.	2g#	.
1A	1r	2a	2.c
.	.	[2e	.
.	.	.	4d
=57	=57	=57	=57
0r	1A	2e]	1e
.	.	2c	.
.	2F	2d	1r
.	2G	[2e	.
=58	=58	=58	=58
0r	2.A	4e]	0r
.	.	4d	.
.	.	4c	.
.	4G	4B	.
.	4F	2A	.
.	4E	.	.
.	2D	2B	.
=59	=59	=59	=59
1r	2E	1c	2r
.	1F	.	1a
2r	.	1A	.
2d	2D	.	2f
=60	=60	=60	=60
2B	2G	1r	2g
2c	2F	.	2.a
2.d	1D	2r	.
.	.	.	4g
.	.	[2d	4f
4c	.	.	4e
=61	=61	=61	=61
4B	0r	2d]	2d
4A	.	.	.
4G	.	2B	1g
4F	.	.	.
2E	.	2c	.
2D	.	[2d	2f
=62	=62	=62	=62
1A	0r	4d]	2.e
.	.	4c	.
.	.	1c	.
.	.	.	8d
.	.	.	8c
1G	.	.	1d
.	.	2B	.
=63	=63	=63	=63
0r	2r	2.e	2.c
.	1A	.	.
.	.	4d	4d
.	.	2c	2e
.	2F	2f	[2d
=64	=64	=64	=64
0r	2G	1e	2d]
.	2.A	.	4c
.	.	.	4B
.	.	2r	2c
.	4G	.	.
.	4F	2a	[2d
.	4E	.	.
=65	=65	=65	=65
2r	2D	2f	4d]
.	.	.	4c
2e	2E	2g	2B
2c	1F	1a	1A
2d	.	.	.
=66	=66	=66	=66
2.e	1E	1g	2r
.	.	.	1e
4d	.	.	.
4c	1r	2.e	.
4B	.	.	.
2A	.	.	2c
.	.	4f	.
=67	=67	=67	=67
2B	0r	1g	2d
2.c	.	.	2.e
.	.	2g	.
4B	.	.	4d
4A	.	[2a	4c
4G	.	.	4B
=68	=68	=68	=68
2F	2r	2a]	2A
2E	1e	4g	2B
.	.	4f	.
1A	.	2.e	1c
.	2c	.	.
.	.	4f	.
=69	=69	=69	=69
2G	1d	2g	2B
2F	.	1a	2A
1E	2.e	.	2B
.	.	2g#	[2e
.	4d	.	.
=70	=70	=70	=70
1A	4c	1a	2e]
.	4B	.	.
.	1A	.	2c
2F	.	1r	2d
2G	2B	.	[2e
=71	=71	=71	=71
2.A	1.c	2r	4e]
.	.	.	4d
.	.	1a	4c
4G	.	.	4B
4F	.	.	1A
4E	.	.	.
2D	2d	2f	.
=72	=72	=72	=72
1E	1B	1g	2e
.	.	.	2e
2.F	1A	2.a	2c
.	.	.	2c
4E	.	4g	.
=73	=73	=73	=73
1.D	2r	4f	2.d
.	.	4e	.
.	2A	2d	.
.	.	.	4c
.	2F	2f	4A
.	.	.	4B
2C	2G	[2e	[2c
=74	=74	=74	=74
1F	1.A	2e]	2c]
.	.	2d	4B
.	.	.	4A
[1E	.	[1e	[1B
.	4G#	.	.
.	4F#	.	.
=75	=75	=75	=75
1E_	2G#	1e_	2B]
.	2A	.	2c
1E_	[1G#	1e_	[1B
=76	=76	=76	=76
1E]	1G#]	1e]	1B]
*-	*-	*-	*-
!!!CDT: 1525/^1526/-1594/2/2
!!!OCY: Italia
!!!AGN: Mass (Paraphrase)
!!!AST: renaissance, vocal
!!!ASW: Hymn
!!!PWK: Masses, Book 9
!!!RNB: Cadence finals: G,E,D
!!!YOR: Le Opere Complete, v. 25, p. 172
!!!YOO: Rome, Italy: Fratelli Scalera
!!!END: 1992//
!!!EED: John Miller
!!!YEC: Copyright 2000, John Miller
!!!YEN: United States of America
!!!YEM: Rights to all derivative electronic formats reserved.
!!!YEM: Refer to licensing agreement for further details.
!!!YEM: This file must be accompanied by the licensing agreement.
!!!YEM: A copy of the licensing agreement may be found at http://www.music-cog.ohio-state.edu/HumdrumDatabases/Palestrina/license.txt
!!!EMD: converted to Humdrum by Bret Aarden
